X: 65
T: REELS: Torn Jacket Set
T: Torn Jacket
C: C: Connie O'Connell / Trad.; S: Tommy Guihen; Connie O'Connell / Various / Shaskeen
C: Set Leaders: Mars, Anton
Z: Mars Agliullin ed., Anton Zille ed., Oleg Naumov arr.; Mars / UPipes & harp / DanG at The Session
N: https://thesession.org/members/26966/sets/94278
R: Reel
M: 4/4
L: 1/8
Q: 1/2=100
K: Dmaj
|:"D"~F3A dfed|"(G)"cAAB "(A)"cdeA|"D (D/B)"~F3A "D/F#"dfed|"G"cAGE "A"EDDE|
"D (Bm)"~F3A dfed|"(Bm)"cAAB "A"cdec|"G"d2de "D/F#"fded|"G"cAGE "A"EDD2:||
|:"D"FAdf "(D/F#)"~a3f|"G"~g3g gfed|"Asus4"cA~A2 (3Bcd "A"ef|"G"gfed "A"cAGE|
"Bm"FAdf "(D/F#)"~a3f|"G"~g3g gfef|"Em"~g2ba gfed|"G"cAGE "A"EDD2:||
T: Morning Star
K: Gmaj
"G"~B2 Ad BGED|"G/B"GA (3Bcd "C"edgd|"G/B"~B2Ad BGED|"C"GBAF "D"~G3A|
"G (Em)"~B3A BGEF|"G/B"GABd efge|"C"dBAc BGEF|"G/B"GBAF "D"~G3A||
"Em"(3Bcd ef g2 eg|"G/B"fedf edBA|"C"(3Bcd ef g2eg|"D"fedf e2ed|
"Em"(3Bcd ef ~g2 eg|"Bm"fedf edBA|"C"Bdd^c "(G/B)"d3g|"C"fgaf "D"gfed||
T: Shaskeen
K: Gmaj
|:"G"DG~G2 ABcA|dged "D/A"cA~A2|"G/B"~B2GB "D/A"ADFA|"C"GBAG "D"FGEF|
"G"DG~G2 ABcA|"(G/B)"dged cA~A2|"D/F#"~f2eg fdcA|1 "D"AGFA ~G3E:|2 "D"AGFA ~G2Bc||
|: "G (Em)"dggf ~g2fg|"D/F#"abag fddc|"C"~B2GB ADFA|"D"GBAG FDD2|
|1 "G (Em)"dggf ~g2fg|"D/F#"~a3g fdde|"D"(3fga eg fdcA|"D"AGFA "D/B"~G2"D/A"Bc:||
|2 "G (Em)"BG~G2 "D/F#"AF~F2|"G/B"dB~B2 "D/A"cA~A2|"D"~f2ea fdcA|"D"AGFA G4||

